icons/aperture.svg

<svg width="24" height="24" viewBox="0 0 24 24" fill="none" xmlns="http://www.w3.org/2000/svg">
<path fill-rule="evenodd" clip-rule="evenodd" d="M4.35968 5.54791C2.88809 7.28894 2 9.54201 2 12C2 16.8993 5.52189 20.9748 10.1724 21.834C10.7665 21.9438 11.3777 22 12 22C15.0222 22 17.732 20.6581 19.5642 18.5411C19.5923 18.512 19.6184 18.4814 19.6425 18.4495C21.1128 16.7088 22 14.4568 22 12C22 7.10068 18.4781 3.02504 13.8275 2.16588C13.2334 2.05612 12.6222 2 12 2C8.98024 2 6.27234 3.33972 4.44025 5.45378C4.41127 5.48364 4.3844 5.5151 4.35968 5.54791ZM18.9315 15.9973C19.6113 14.8214 20 13.4568 20 12C20 11.311 19.9129 10.6423 19.7491 10.0043H15.4715L18.9315 15.9973ZM13.1621 10.0043H10.8428L9.6906 11.9999L10.8453 13.9999H13.1547L14.3118 11.9957L13.1621 10.0043ZM15.4665 13.9957L12 20C12 20 11.9999 20 12 20C14.1842 20 16.1635 19.1256 17.6082 17.7052L15.4665 13.9957ZM9.85742 19.711L12 15.9999H5.07C6.10654 17.7925 7.81829 19.1458 9.85742 19.711ZM4.25201 13.9999C4.0875 13.3606 4 12.6905 4 12C4 10.5415 4.38961 9.17534 5.07094 7.99844L8.5359 13.9999H4.25201ZM8.5359 9.99992L12 4C9.81726 4.00001 7.83935 4.87316 6.39498 6.29174L8.5359 9.99992ZM14.1425 4.28894L11.9975 8.00429H18.9325C17.8962 6.20959 16.1833 4.85457 14.1425 4.28894Z" fill="black"/>
</svg>

<svg
  width="24"
  height="24"
  viewBox="0 0 24 24"
  xmlns="http://www.w3.org/2000/svg"
>
  <path
    fill-rule="evenodd"
    clip-rule="evenodd"
    d="M4.36 5.548A9.964 9.964 0 0 0 2 12c0 4.9 3.522 8.975 8.172 9.834.595.11 1.206.166 1.828.166a9.98 9.98 0 0 0 7.642-3.55A9.964 9.964 0 0 0 22 12c0-4.9-3.522-8.975-8.172-9.834A10.055 10.055 0 0 0 12 2a9.98 9.98 0 0 0-7.64 3.548zm14.571 10.45A7.96 7.96 0 0 0 20 12c0-.689-.087-1.358-.25-1.996h-4.278l3.46 5.993zm-5.769-5.994h-2.32L9.692 12l1.154 2h2.31l1.157-2.004-1.15-1.992zm2.304 3.992L12 20a7.972 7.972 0 0 0 5.608-2.295l-2.142-3.71zM9.857 19.71L12 16H5.07a8.017 8.017 0 0 0 4.787 3.711zM4.252 14A8.016 8.016 0 0 1 4 12a7.96 7.96 0 0 1 1.07-4.002L8.537 14H4.252zm4.284-4L12 4c-2.183 0-4.16.873-5.605 2.292L8.535 10zm5.607-5.711l-2.146 3.715h6.936a8.017 8.017 0 0 0-4.79-3.715z"
  />
</svg>
